X:1
T:Promise, 87.87 D
T:Promise, 87.87 D
T:Bentley DeForest Ackley, 1920
T:Public Domain Courtesy of the Cyber Hymnal™
C:Bentley DeForest Ackley, 1920
Z:Public Domain
Z:Courtesy of the Cyber Hymnal™
%%score 1 2
L:1/8
Q:1/4=112
M:4/4
K:Bb
V:1 treble 
V:2 bass 
V:1
 [DF]>[DF] | [DB]2 [DB]2 [DB]2 [Ec]2 | [DB]2 [DF]4 [DB]>[Ec] | [Fd]2 [Fd]2 [Fd]2 [FB]2 | %4
 [Ec]6 [EF]>[EF] | [DB]2 [DB]2 [DB]2 [Ec]2 | [DB]2 [DF]4 [FB]>[Gc] | [Fd] [Fd]3 [Fd]2 [Ec]2 | %8
 [DB]6 [Fd]>[Ec] | [DB]2 [DF]2 [DG]2 [DF]2 | [EA]2 [EA]4 [EF]>[EG] | [EA]2 [EA]2 [EG]2 [EF]2 | %12
 [Fd]6 [Fd]>[Ec] | [DB]2 [DF]2 [DG]2 [DF]2 | [EA]2 [EA]4 [EF]>[EG] | [EA]2 [EA]2 [Fd]3 [Ec] | %16
 [DB]6 |] %17
V:2
 [B,,B,]>[B,,B,] | [B,,F,]2 [B,,F,]2 [B,,F,]2 [B,,F,]2 | [B,,F,]2 [B,,B,]4 [B,,F,]>[B,,F,] | %3
 [B,,B,]2 [B,,B,]2 [B,,B,]2 [D,B,]2 | [F,A,]6 [F,A,]>[F,A,] | [B,,F,]2 [B,,F,]2 [B,,F,]2 [B,,F,]2 | %6
 [B,,F,]2 [B,,B,]4 [D,B,]>[E,B,] | [F,B,] [F,B,]3 [F,A,]2 [F,A,]2 | [B,,F,B,]6 [F,A,]>[F,A,] | %9
 [B,,F,]2 [B,,B,]2 [B,,B,]2 [B,,B,]2 | [F,C]2 [F,C]4 [F,A,]>[F,B,] | %11
 [F,C]2 [F,C]2 [F,B,]2 [F,A,]2 | [B,,B,]6 [F,A,]>[F,A,] | [B,,F,]2 [B,,B,]2 [B,,B,]2 [B,,B,]2 | %14
 [F,C]2 [F,C]4 [F,A,]>[F,B,] | [F,C]2 [F,C]2 [F,B,]3 [F,A,] | [B,,F,B,]6 |] %17

